X:1
T:O Grace of God So Boundless
T:O Grace of God So Boundless
T:Daniel Brink Towner
T:Thomas Todhunter Shields, 1908
T:Public Domain Courtesy of the Cyber Hymnal™
T:Public Domain Courtesy of the Cyber Hymnal™
C:Daniel Brink Towner
Z:Public Domain
Z:Courtesy of the Cyber Hymnal™
%%score ( 1 2 ) ( 3 4 )
L:1/8
Q:1/4=145
M:6/4
K:Db
V:1 treble 
V:2 treble 
V:3 bass 
V:4 bass 
V:1
 [DF][DF] | [DF]2 [DF]2 [DF]2 [DF]4 [DF]2 | [CG]6 [CG]4 [CG]2 | %3
w: 1.~There was|nev- er a prince so|roy- al, So|
w: 2.~Ev- er|bu- sy His hands with|kind- ness, His|
w: 3.~There were|ne- ver such floods of|sor- row, Such|
 [EG]2 [EG]2 [EG]2 ([EG]2 [DF]2) [CE]2 | [DF]6- [DF]4 [FA][FA] | [FA]2 [FA]2 [FA]2 [FA]4 [FA]2 | %6
w: wor- thy of death- * less|fame; * There was|ne- ver a friend so|
w: lips o- ver- flowed * with|grace, * While His|feet were im- pelled to|
w: grief as the Sav- * ior|braved, * As were|brim- ming His cup on|
 [GB]6 [GB]4 [GB][GB] | [=GB]2 [GB]2 [GB]2 [GB]2 [Ac]2 [Bd]2 | [Ac]6- [Ac]4 [Gc][Gc] | %9
w: loy- al, Such an|o- cean of love in a|name! * There were|
w: mer- cy, Love im-|mor- tal il- lu- mined His|face. * And yet|
w: Cal- vary, When He|drained it that we might be|saved. * O, was|
 [Fd]2 [Fd]2 [Fd]2 [Ac]4 [DF]2 | [DB]6 [DB]4 [DB]2 | [EB]2 [EB]2 [EB]2 [EB]2 [Ec]2 [Ed]2 | %12
w: ne- ver such springs of|sweet- ness, Such|streams of in- ef- fa- ble|
w: ne- ver a fiend did|fa- thom Such|depth of de- ri- sion and|
w: ev- er a heart so|har- dened, And|can such in- gra- ti- tude|
 [Ec]6- [Ec]4 [Gc]2 | [Fd]2 [Fd]2 [Fd]2 [FA]4 [DF]2 | [B,E]6 [DB]4 [DB]2 | %15
w: bliss, * Such|pow- ers of ho- ly|meet- ness As|
w: shame, * And|nev- er the vil- est|trai- tor Did|
w: be, * That|one for whom Je- sus|suf- fered Will|
 [DA]2 D2 [CG]2 [DF]2 [DF]2 [CE]2 | [A,D]6- [A,D]4 ||"^Refrain" A2 | e4 c2 ([GA]2 B2) [Gc]2 | %19
w: welled in that he- art of|His. *|O|grace of so * bound-|
w: bear such a bur- den of|blame. *|||
w: say, “It is no- thing to|me”? *|||
 d6 A4 [DF]2 | ([FB]2 [DF]2) [FB]2 [Fd]4 [Ec]2 | [DB]6- [DB]4 [EA]2 | [Fd]4 [FA]2 (F2 G2) A2 | %23
w: less! O love|of * Christ, so true!|Has * sin|your soul so * blind-|
w: ||||
w: ||||
 [Gc]6 !fermata![GB]4 [=GB]2 | A2 [Fd]8 [=Ed]2 | F2 [DF]8 [CE]2 | (z2 A,2 B,2 [A,D]6- | %27
w: ed, That Je-|sus is no-|thing to you?||
w: ||||
w: ||||
 [A,D]6) z4 |] %28
w: |
w: |
w: |
V:2
 x2 | x12 | x12 | x12 | x12 | x12 | x12 | x12 | x12 | x12 | x12 | x12 | x12 | x12 | x12 | %15
 x2 D2 x8 | x10 || A2 | G6- x6 | (F4 F2) (F2 F2) x2 | x12 | x12 | x6 D4 A2 | x12 | A2 x10 | %25
 F2 x10 | D6 x6 | x10 |] %28
V:3
 [D,A,][D,A,] | [D,A,]2 [D,A,]2 [D,A,]2 [D,A,]4 [D,A,]2 | [E,A,]6 [E,A,]4 [E,A,]2 | %3
w: ~ ~|~ ~ ~ ~ ~|~ ~ ~|
 [A,,A,]2 [A,,A,]2 [A,,A,]2 [A,,A,]4 [A,,A,]2 | [D,A,]6- [D,A,]4 [D,D][D,D] | %5
w: ~ ~ ~ ~ ~|~ * ~ ~|
 [D,D]2 [D,D]2 [D,D]2 [D,D]4 [D,D]2 | [G,D]6 [G,D]4 [G,D][G,D] | %7
w: ~ ~ ~ ~ ~|~ ~ ~ ~|
 [E,E]2 [E,E]2 [E,E]2 [E,E]2 [E,E]2 [E,E]2 | [A,E]6- [A,E]4 A,A, | %9
w: ~ ~ ~ ~ ~ ~|~ * ~ ~|
 [D,A,]2 [D,A,]2 [D,A,]2 [D,D]4 [D,A,]2 | G,6 G,4 G,2 | %11
w: ~ ~ ~ ~ ~|~ ~ ~|
 [E,=G,]2 [E,G,]2 [E,G,]2 [E,G,]2 [E,A,]2 [E,B,]2 | A,6- A,4 A,2 | %13
w: ~ ~ ~ ~ ~ ~|~ * ~|
 [D,A,]2 [D,A,]2 [D,A,]2 [D,D]4 [D,A,]2 | G,6 G,4 [G,,G,]2 | %15
w: ~ ~ ~ ~ ~|~ ~ ~|
 [A,,F,]2 [A,,F,]2 [A,,E,]2 [A,,A,]2 [A,,A,]2 [A,,G,]2 | [D,F,]6- [D,F,]4 || A,2 | %18
w: ~ ~ ~ ~ ~ ~|~ *|O|
 (C4 A,2 C2 D2) [A,E]2 | D6 D4 [D,A,]2 | D6 [F,B,]4 [F,=A,]2 | B,2 A,2 [B,,G,]2 [B,,F,]4 [C,E,]2 | %22
w: grace * * * of|God, so bound-|less! O love|* * of Christ, so|
 z2 A,2 [D,D]2 A,4 [F,D]2 | [G,E]6 [G,D]4 [=E,D]2 | [F,D]2 [D,A,]4 [D,A,]4 [__B,,=G,]2 | %25
w: true! ~ ~ ~|~ ~ ~|~ ~ ~ ~|
 [A,,A,]2 [A,,A,]4 [A,,A,]4 [A,,G,]2 | F,2 F,2 G,2 [D,F,]6- | [D,F,]6 z4 |] %28
w: ~ ~ ~ ~|~ ~ ~ no-||
V:4
 x2 | x12 | x12 | x12 | x12 | x12 | x12 | x12 | x10 A,A, | x12 | G,6 G,4 G,2 | x12 | A,6- A,4 A,2 | %13
 x12 | G,6 G,4 x2 | x12 | x10 || A,2 | A,6 A,4 x2 | B,,4 D,2 D,2 D,2 x2 | B,,4 D,2 x6 | B,,4 x8 | %22
 D,4 D,2 E,2 x4 | x12 | x12 | x12 | D,6- x6 | x10 |] %28

